X: 32
T:Rose in the Heather, The
M:6/8
L:1/8
S:Frankie Gavin
D:Frankie Gavin: Frankie Goes to Town
Z:Barney
K:D
D2F EDB,|DFA BAF|ABd ede|fdB AFE|~F2F EDB,|DFA Bcd|edB AFE|
|1 FDD DFE:|2  FDD D2 e||fdB ABd|faa afd|~g3 fed|Bee ede|
fdB ABd|faa afa|baf gfe|1 fdd d2e:|2 fdB AFE||
